!!!!SEGMENT: pl-sa--555-a-ix-35--002_anonim--polonez.krn
!!!cenid: 18xx:582
!!!COM: Anonim
!!!COM-rismID: pe30004985
!!!CDT:
!!!CNT:
!!!OTL: Polonez
!!!PDT:
!!!AGN: Secular; Polonaise
!!!SMS-siglum: PL-SA
!!!SMS-shelfmark: 555/A IX 35
!!!SMS-shelfwork: 002 W
!!!SMS-variant:
!!!SMS-altvar:
!!!NIFC-rismSourceID: 1001065393
!!!NIFC-rismChildID: 1001065393
!!!NIFC-islandoraID: none
!!!URL-pdf-islandora:
!!!URL-scan: https://bc.bdsandomierz.pl/dlibra/publication/1311/edition/1279/content @EN{Scan in the Sandomierz Diocese Digital Library} @PL{Skany w portalu Cyfrowa Biblioteka Diecezjalna w Sandomierzu}
!!!IIIF:
!!!ONB-nifc: Str. 2-3
!!!AIN: 2 piano
!!!key:
**kern	**dynam	**kern	**dynam
*part2	*part2	*part1	*part1
*staff2	*	*staff1	*
*Ipiano	*	*Ipiano	*
*I"Piano	*	*I"Piano	*
*clefF4	*	*clefG2	*
*k[b-e-]	*	*k[b-e-]	*
*g:	*	*g:	*
*M3/4	*	*M3/4	*
=1	=1	=1	=1
!	!	!LO:TX:b:i:t=dol&colon;	!
!	!	!LO:SIC:o:s:t:=:v:ozdobnik trillo&colon;global	!
!	!	!LO:TX:a:B:t=t	!
!	!	!LO:TX:a:B:t=Polo&colon; et Andantino	!
8G\L	.	4.dd\	p
8d\	.	.	.
8B-\	.	.	.
8d\	.	(16cc\LL	.
.	.	16b-\JJ)	.
!	!	!LO:LO:TUP:a:problem=klamra łukowa kropka zamiast numeru	!
!	!	!LO:TUP:a	!
8G\	.	12a\L	.
.	.	12b-\	.
8d\J	.	.	.
.	.	12g\J	.
=2	=2	=2	=2
8G\L	.	(16ff#X\LL	.
.	.	16gg\J)	.
!	!	!LO:TX:a:B:t=t	!
8d\	.	8gg\J	.
8B-\	.	4.dd\	.
8d\	.	.	.
8G\	.	.	.
8d\J	.	16cc\LL	.
.	.	16b-\JJ	.
=3	=3	=3	=3
8F#X\L	.	(32a\LLL	.
.	.	32cc\	f
.	.	32ee-\	.
.	.	32dd\JJJ)	.
8d\	.	(4cc\	p
8A\	.	.	.
8d\	.	8b-\)	.
8F#\	.	16b-/LL	.
.	.	16a/	.
8d\J	.	16g/	.
.	.	16f#X/JJ	.
=4	=4	=4	=4
.	.	8qqa/	.
8F#X\L	.	8aa'\L	.
!	!	!LO:SIC:o:s:=:v:niejednoznaczny zapis łuku	!
8d\	.	(8aa\J	.
8A\	.	(8.a\L)	.
8d\	.	.	.
.	.	16b-\Jk)	.
8F#\	.	(16cc\LL	.
.	.	32dd\L	.
.	.	32ee-\J)	.
8d\J	.	16dd\	.
.	.	16cc\JJ	.
=5	=5	=5	=5
16G\LL	.	(16b-\LL	.
16d\	.	16dd\J)	.
16B-\	.	8.gg'\J	.
16d\JJ	.	.	.
16A\LL	.	.	.
16d\	.	16ff#X'\LL	.
16B-\	.	(16aa\	.
16d\JJ	.	16gg\JJ)	.
16F#X\LL	.	(16bb-\LL	.
16d\	.	16aa\	.
16G\	.	16ccc\	.
16d\JJ	.	16bb-\JJ)	.
!!LO:LB:g=original
=6	=6	=6	=6
16B-\LL	.	(16ddd\LL	.
16d\	.	16bb-\	.
16G\	.	16aa\)	.
!	!	!LO:TX:a:B:t=t	!
16d\JJ	.	16bb-\JJ	.
16B-\LL	.	4.gg\	.
16g\	.	.	.
16d\	.	.	.
16g\JJ	.	.	.
16Bn\LL	.	.	.
16g\	.	.	.
*	*	*Xtuplet	*
!	!	!LO:LO:TUP:a:problem=klamra łukowa bez numeru	!
16d\	.	24ffn\LL	.
.	.	24ee-\	.
16g\JJ	.	.	.
.	.	24dd\JJ	.
=7	=7	=7	=7
8.c\L 8.C\	.	48ee-\LLL	.
.	.	48ff\	.
.	.	48gg\	f
.	.	(32ff\	.
.	.	32ee-\JJJ)	.
.	.	16eee-\LL 16ee-\	p
16B-\Jk 16BB-\	.	16ddd\JJ 16dd\	.
8.A\L 8.AA\	.	48cc\LLL	.
.	.	48dd\	.
.	.	48ee-\	f
.	.	(32dd\	.
.	.	32cc\JJJ)	.
.	.	16ccc\LL 16cc'\	p
16G\Jk 16GG\	.	16bb-\JJ 16b-'\	.
8.F#X/L 8.FF#X/	.	48a\LLL	.
.	.	48b-\	.
.	.	48cc\	.
.	.	(32b-\	.
.	.	32a\JJJ)	.
.	.	16aa\LL 16a'\	.
16E-/Jk 16EE-/	.	16gg\JJ 16g'\	.
=8	=8	=8	=8
4D/	.	16ff#X\LL	.
!	!	!LO:TX:a:B:t=t	!
.	.	16gg\	.
.	.	16bb-\ 16dd\	.
.	.	16aa\JJ 16cc\	.
!	!	!LO:SIC:o:s:=:v:przednutka 4\acciaccatura	!
.	.	4qqaa/ 4qqcc/	.
*	*	*2\right	*
8G\L	.	2gg\ 2b-\	.
8D\J	.	.	.
4GG/	.	.	.
!	!	!	!LO:SIC:o:s:=:v:ozdobna kreska taktowa
=9||;	=9||	=9||;	=9||
16BB-'/LL	.	16B-'/LL	f
!	!	!LO:TX:a:B:t=t	!
16BB-'/	.	16B-'/	.
16AA'/	.	16c'/	.
16BB-'/JJ	.	16d'/JJ	.
16C'/LL	.	16e-'/LL	.
16D'/	.	16f'/	.
16E-'/	.	16g'/	.
16F'/JJ	.	16a'/JJ	.
4B-\	.	16b-\	.
.	.	16cc\LL 16a\	.
.	.	16dd\ 16b-\	.
.	.	16ee-\JJ 16cc\	.
!!LO:LB:g=original
=10	=10	=10	=10
4BB-/	.	8ff\L 8dd'\	p
!	!	!LO:TX:a:B:t=t	!
.	.	8ff\J 8dd\	.
4B-\	.	(8.bb-\L 8.dd\	.
.	.	16ff\Jk 16dd\)	.
4r	.	(8.dd\L 8.b-\	.
.	.	16ff\Jk 16dd\)	.
=11	=11	=11	=11
4F\	.	(16ff\LL 16dd\	.
.	.	16ee-\ 16cc\	.
.	.	16gg\ 16ee-\	.
.	.	16ee-\JJ 16cc\)	.
4FF/	.	8.cc\L 8.a\	.
.	.	32dd\LL 32b-\	.
.	.	32ee-\JJJ 32cc\	.
4F#X/ 4FF#X/	.	8dd\L 8b-\	.
.	.	8cc\J 8a\	.
=12	=12	=12	=12
16GG'/LL	.	16G'/LL	f
!	!	!LO:TX:a:B:t=t	!
16GG'/	.	16G'/	.
16FF#X'/	.	16A'/	.
16GG'/JJ	.	16B-'/JJ	.
16AA'/LL	.	16c'/LL	.
16BB-'/	.	16d'/	.
16C'/	.	16en'/	.
16D'/JJ	.	16f#X'/JJ	.
4G\	.	16g'/	.
.	.	(16a/LL 16f#/	.
.	.	16b-/ 16g/	.
.	.	16cc/JJ 16a/)	.
=13	=13	=13	=13
4GG/	.	8dd\L 8b-'\	.
!	!	!LO:TX:a:B:t=t	!
.	.	8dd\J	.
4BB-/	.	8gg\L 8b-'\	.
!	!	!LO:TX:a:B:t=t	!
.	.	8gg\J	.
4GG/	.	8bb-\L 8dd'\	.
!	!	!LO:TX:a:B:t=t	!
.	.	8bb-\J	.
=14	=14	=14	=14
*	*	*tuplet	*
!	!	!LO:TUP:a	!
4.C/	.	12aa\L 12cc\	.
.	.	12ccc\ 12ee-\	.
.	.	12bb-\J 12dd\	.
.	.	(8.aa\L 8.cc\	.
8C#X/	.	.	.
.	.	16gg\Jk 16b-\)	.
.	.	8qqgg/ 8qqb-/	.
4D/	.	4ff#X\ 4a\	.
*clefG2	*	*	*
=15	=15	=15	=15
*tremolo	*	*	*
.	.	16qqdd/	.
(8b-/L 8g/	.	4.ddd\	.
8d/)	.	.	.
(8b-/ 8g/	.	.	.
*	*	*Xtuplet	*
8d/)	.	(24ccc#X\LL	.
.	.	24ddd\)	.
.	.	(24aa\JJ	.
(8b-/ 8g/	.	16bb-\LL)	.
.	.	(16ff#X\	.
8d/J)	.	16gg\)	.
*Xtremolo	*	*	*
.	.	16dd'\JJ	.
!!LO:LB:g=original
=16	=16	=16	=16
*tremolo	*	*	*
(8a/L 8f#X/	.	(8.ee-\L	p
8d/)	.	.	.
.	.	16dd\Jk)	.
(8a/ 8f#/	.	(32cc\LLL	.
.	.	32ee-\	.
.	.	32dd\	.
.	.	32ee-\	.
8d/)	.	32ff\	.
.	.	32ee-\	.
.	.	32dd\	.
.	.	32ee-\JJJ)	.
(8a/ 8f#/	.	4cc\	.
8d/J)	.	.	.
*Xtremolo	*	*	*
=17	=17	=17	=17
*tremolo	*	*	*
.	.	8qqcc/	.
(8a/L 8f#X/	.	4.ccc\	.
8d/)	.	.	.
(8a/ 8f#/	.	.	.
8d/)	.	(24gg#X\LL	>
.	.	24aa\)	.
.	.	(24een\JJ	.
(8a/ 8f#/	.	16ff\LL)	]
.	.	(16cc#X\	.
8d/J)	.	16dd\)	.
*Xtremolo	*	*	*
.	.	16a'\JJ	.
*LO:CL:ed	*	*	*
*clefF4	*	*	*
=18	=18	=18	=18
!LO:SIC:o:s:=:v:brak zmiany klucza na F4	!	!	!
8g\L	.	(16b-\LL	.
.	.	32cc\L	.
.	.	32dd\J)	.
8e-\J	.	16cc'\	.
.	.	16b-'\JJ	.
8c\L	.	8..a/L	.
8c#X\J	.	.	.
.	.	32g/Jkk	.
8d\	.	16f#X/LL	.
.	.	16dd/J	.
8r	.	8d/J	.
!	!	!LO:TX:b:t=Da Capo&colon;	!
!!LO:PB:g=original
=19||	=19||	=19||	=19||
*k[b-e-]	*	*k[b-e-]	*
*M3/4	*	*M3/4	*
!	!	!LO:TX:a:B:t=Trio	!
4G/ 4GG/	.	8dd\L 8b-'\	p
!	!	!LO:TX:a:B:t=t	!
.	.	8dd\J	.
8r	.	(4.gg\ 4.b-\	.
8GG/L	.	.	.
8BB-/	.	.	.
8GG/J	.	8bb-\ 8dd\)	.
=20	=20	=20	=20
8D/L	.	(8.bb-\L 8.dd\	.
8DD/J	.	.	.
.	.	16aa\Jk 16cc\)	.
!LO:TX:a:t=P:problem=mixed beam	!	!	!
16GG/LL	.	4gg\ 4b-\	.
(16f#X\	f	.	.
16g\)	.	.	.
(16c#X\JJ	.	.	.
16d\LL)	.	4r	.
(16A\	.	.	.
16B-\)	.	.	.
16F#X\JJ	.	.	.
=21	=21	=21	=21
4G\	.	8dd\L 8b-'\	.
!	!	!LO:TX:a:B:t=t	!
.	.	8dd\J	.
8r	.	(4.ddd\	.
8GG/L	.	.	.
8BB-/	.	.	.
8D/J	.	8ff#X\)	.
=22	=22	=22	=22
4G\	.	(16gg\LL	.
.	.	16aa\)	.
.	.	(16bb-\ 16dd\	.
.	.	16aa\JJ 16cc\)	.
16r	.	4gg\ 4b-\	.
(16A\LL	f	.	.
16B-\)	.	.	.
(16c#X\JJ	.	.	.
16d\LL)	.	4r	.
(16f#X\	.	.	.
16g\)	.	.	.
16G'\JJ	.	.	.
!!LO:LB:g=original
=23||:	=23	=23||:	=23
*	*	*^	*
2F#X/ 2FF#X/	.	4ee-/	4cc\ 4a\	f
.	.	8ee-\L 8cc\	4ryy	.
.	.	8ee-\J 8cc\	.	.
4r	.	16ee-/LL	4cc\	.
.	.	(32ff/L	.	.
.	.	32gg/J)	.	.
.	.	(16ff/	.	.
.	.	16ee-/JJ)	.	.
=24	=24	=24	=24	=24
8G\ 8GG\	.	16ee-/LL	4b-\	.
.	.	16dd/	.	.
8r	.	(16dd/	.	.
.	.	16gg/JJ)	.	.
8A\ 8AA\	.	16gg/LL	4cc\	.
.	.	16ff#X/	.	.
8r	.	(16ff#/	.	.
.	.	16aa/JJ)	.	.
8B-\ 8BB-\	.	(16aa/LL	4dd\	.
.	.	16gg/J)	.	.
8r	.	8gg/J	.	.
=25:||	=25	=25:||	=25:||	=25
*rep	*	*rep	*rep	*
!LO:TX:a:t=P:problem=powtórzenie tt. 23-24 oznaczone znakami repetycji	!	!LO:TX:a:t=P:problem= powtórzenie tt. 23-24 oznaczone znakami repetycji	!	!
2F#Xyy/ 2FF#X/yy	.	4ee-yy/	4ccyy\ 4a\yy	f
.	.	8eeyy\-L 8cc\yy	4ryy	.
.	.	8ee-yy\J 8cc\yy	.	.
4ryy	.	16ee-/LLyy	4cc\yy	.
.	.	(32ff/Lyy	.	.
.	.	32gg/J)yy	.	.
.	.	(16ff/yy	.	.
.	.	16ee-/JJ)yy	.	.
=26	=26	=26	=26	=26
8Gyy\ 8GG\yy	.	16ee-/LLyy	4b-\yy	.
.	.	16dd/yy	.	.
8ryy	.	(16dd/yy	.	.
.	.	16gg/JJ)yy	.	.
8Ayy\ 8AA\yy	.	16gg/LLyy	4cc\yy	.
.	.	16ff#X/yy	.	.
8ryy	.	(16ff#/yy	.	.
.	.	16aa/JJ)yy	.	.
8B-yy\ 8BB-\yy	.	(16aa/LLyy	4dd\yy	.
.	.	16gg/J)yy	.	.
8ryy	.	8gg/Jyy	.	.
*Xrep	*	*Xrep	*Xrep	*
=27	=27	=27	=27	=27
8c\L 8C\	.	16bb-/LL	8ee-\L	.
.	.	16aa/	.	.
8B-\ 8BB-\	.	16aa/	8dd\J	.
.	.	16gg/JJ	.	.
8A\ 8AA\	.	16gg/LL	8cc\L	.
.	.	16ff#X/	.	.
8G\ 8GG\	.	16ff#/	8b-\J	.
.	.	16ee-/JJ	.	.
8F#X\ 8FF#X\	.	16ee-/LL	8a\L	.
.	.	16dd/	.	.
8E-\J 8EE-\	.	16dd/	8g\J	.
.	.	16cc/JJ	.	.
*	*	*v	*v	*
=28	=28	=28	=28
4D/	.	16b-/LL	.
.	.	16g/	.
.	.	16f#X/	.
.	.	16a/JJ	.
!	!	!LO:SIC:o:s:=:v:kreska taktowa końcowa	!
.	.	8qqa/ 8qqd/	.
8r	.	2g/ 2B-/	.
8G\	.	.	.
!LO:SIC:o:s:=:v:kreska taktowa końcowa	!	!	!
4GG/	.	.	.
=29||	=29||	=29||	=29||
*2\right	*	*clefF4	*
*^	*	*^	*
!LO:TX:b:t=ten	!	!	!	!	!
!LO:SIC:o:s:=:v:2\right&colon;global	!	!	!	!	!
8r	2.DD\	f	8..A/L	4F#X\	.
8D/	.	.	.	.	.
.	.	.	32d/Jkk	.	.
*	*	*	*v	*v	*
*tremolo	*	*	*	*
*	*	*	*^	*
8D/L	.	.	4.d/	2F#\	.
8D/	.	.	.	.	.
8D/	.	.	.	.	.
8D/J	.	.	8c/	.	.
*v	*v	*	*	*	*
*	*	*v	*v	*
*Xtremolo	*	*	*
=30	=30	=30	=30
*^	*	*^	*
!LO:TX:b:t=ten	!	!	!	!	!
8r	2.EE-X\	.	8.c/L	4G\	.
8E-/	.	.	.	.	.
.	.	.	16B-/Jk	.	.
*	*	*	*v	*v	*
*tremolo	*	*	*	*
*	*	*	*^	*
8E-/L	.	.	4B-/	4G\	.
8E-/	.	.	.	.	.
8E-/	.	.	4r	4ryy	.
8E-/J	.	.	.	.	.
*v	*v	*	*	*	*
*	*	*v	*v	*
*Xtremolo	*	*	*
*^	*	*	*
*	*	*	*clefG2	*
=31	=31	=31	=31	=31
!LO:TX:b:t=ten.	!	!	!	!
8r	2.EE-\	.	8g/	.
8E-/	.	.	8g/L 8B-/	.
*tremolo	*	*	*	*
8E-/L	.	.	8a/ 8c/	.
8E-/	.	.	8b-/J 8d/	.
8E-/	.	.	16b-/LL 16d/	.
.	.	.	16a/ 16c/	.
8E-/J	.	.	16a/ 16c/	.
*v	*v	*	*	*
*Xtremolo	*	*	*
.	.	16g/JJ 16B-/	.
*clefG2	*	*	*
=32	=32	=32	=32
*	*	*^	*
8B-'/	p	8f#X/ 8A/	8rFyy	.
(8d/L	.	8dd/L	8f#\L	p
8en/	.	8dd/	8g\	.
8f#X/	.	8dd/	8a\	.
8g/	.	8dd/	8b-\	.
8a/J)	.	8dd/J	8cc\J	.
!LO:TX:b:t=Trio Da Capo	!	!	!	!
*	*	*v	*v	*
==	==	==	==
*-	*-	*-	*-
!!!system-decoration: s1,s2
!!!RDF**dynam: p = p:
!!!RDF**dynam: f = f:
!!!EED: Leszek Kubiak
!!!EEV: 2020-12-10
!!!ENC: Andrzej Kubiczek
!!!END: 2020-06-19
!!!YEC: Copyright 2022 Narodowy Instytut Fryderyka Chopina (https://polishscores.org)
!!!YEM: License CC-BY-4.0 (https://creativecommons.org/licenses/by/4.0)
